!!!!SEGMENT: pl-kk--kk-i-3--033_anonim--nuntiemus-nuntium.krn
!!!cenid: 15xx:641
!!!COM: Anonim
!!!COM-rismID:
!!!CDT:
!!!CNT:
!!!OTL: Nuntiemus nuntium
!!!PDT:
!!!AGN:
!!!SMS-siglum: PL-Kk
!!!SMS-shelfmark: Kk.I.3
!!!SMS-shelfwork: 033 W
!!!SMS-variant:
!!!SMS-altvar:
!!!NIFC-rismSourceID: 1001145493
!!!NIFC-islandoraID: pl-kk:1170
!!!URL-pdf-islandora: https://repozytorium.nifc.pl/islandora/object/pl-kk%3A1170/datastream/PDF/view
!!!URL-scan: https://polish.musicsources.pl/pl/lokalizacje/galeria/rekopisy/5919 @EN{Scan on Polish Music Herritage in Open Access Website} @PL{Skany w portalu Dziedzictwo Muzyki Polskiej w otwartym dostępie}
!!!ONB-nifc: UWAGA: Discantus (s. 102v-105r, skan 0105-0107), Tenor (s. 76v-78v, skan 0249-0251), Bassus (s. 100r-102r, skan 0403-0405). Następny utwór: Nuntiemus nuntium
!!!AIN: 1 bass 1 soprn 1 tenor
!!!key: F:lyd
**kern	**text	**text	**kern	**text	**text	**kern	**text	**text
*group1	*	*	*group1	*	*	*group1	*	*
*part3	*part3	*part3	*part2	*part2	*part2	*part1	*part1	*part1
*staff3	*staff3	*staff3	*staff2	*staff2	*staff2	*staff1	*staff1	*staff1
*I"[Bassus]	*	*	*I"[Tenor]	*	*	*I"[Discantus]	*	*
*I'[B]	*	*	*I'[T]	*	*	*I'[S]	*	*
*Ibass	*	*	*Itenor	*	*	*Isoprn	*	*
*ICvox	*	*	*ICvox	*	*	*ICvox	*	*
*clefF4	*	*	*clefC4	*	*	*clefC3	*	*
*k[b-]	*	*	*k[b-]	*	*	*k[b-]	*	*
*F:lyd	*	*	*F:lyd	*	*	*F:lyd	*	*
*M2/1	*	*	*M2/1	*	*	*M2/1	*	*
*met(C|)	*	*	*met(C|)	*	*	*met(C|)	*	*
=1-	=1-	=1-	=1-	=1-	=1-	=1-	=1-	=1-
!LO:TX:t=P:problem=all\middle&colon; global	!	!	!LO:TX:t=P:problem=all\middle&colon; global	!	!	!LO:TX:t=P:problem=all\middle&colon; global	!	!
0r	.	.	0r	.	.	1r	.	.
!	!	!	!	!	!	!LO:TX:t=P:problem=niewiele źródeł tekstowych w Internecie	!	!
.	.	.	.	.	.	1f	Nunc-	.
=2-	=2-	=2-	=2-	=2-	=2-	=2-	=2-	=2-
1C	Nunc-	.	1r	.	.	2.g\	-ci-	.
.	.	.	.	.	.	8f/L	-e-	.
.	.	.	.	.	.	8e/J	.	.
*lig	*	*	*	*	*	*	*	*
1D	-ci-	.	1F	Nunc-	.	4d/	.	.
.	.	.	.	.	.	4c/	.	.
.	.	.	.	.	.	1f\	.	.
=3-	=3-	=3-	=3-	=3-	=3-	=3-	=3-	=3-
*	*	*	*lig	*	*	*	*	*
1C	.	.	1G	-ci-	.	.	.	.
.	.	.	.	.	.	2e/	.	.
*Xlig	*	*	*	*	*	*	*	*
1D	-e-	.	1F	.	.	1f	-mus	.
*	*	*	*Xlig	*	*	*	*	*
*	*	*	*	*	*	*custos:e	*	*
!	!	!	!	!	!	!LO:LB:g=original	!	!
=4-	=4-	=4-	=4-	=4-	=4-	=4-	=4-	=4-
*	*	*	*lig	*	*	*	*	*
1E	.	.	1G	-e-	.	4e/	.	.
.	.	.	.	.	.	4d/	.	.
.	.	.	.	.	.	4c/	.	.
.	.	.	.	.	.	4B-/	.	.
2.F/	.	.	1A	.	.	2A/	.	.
.	.	.	.	.	.	1f\	nun-	.
4E/	.	.	.	.	.	.	.	.
*	*	*	*Xlig	*	*	*	*	*
=5-	=5-	=5-	=5-	=5-	=5-	=5-	=5-	=5-
1D	.	.	1B-	.	.	.	.	.
.	.	.	.	.	.	4e/	-cti-	.
.	.	.	.	.	.	4d/	.	.
1C	.	.	1A	.	.	2e\	.	.
.	.	.	.	.	.	2c/	.	.
*custos:BB-	*	*	*	*	*	*	*	*
!LO:LB:g=original	!	!	!	!	!	!	!	!
=6-	=6-	=6-	=6-	=6-	=6-	=6-	=6-	=6-
2BB-/	.	.	1G	.	.	2d/	.	.
2C/	.	.	.	.	.	1c	.	.
*	*	*	*lig	*	*	*	*	*
1D	.	.	1F	.	.	.	.	.
!	!	!	!	!	!	!LO:SIC:v:s:t=2Bn/	!	!
.	.	.	.	.	.	2B-/	-um	.
=7-	=7-	=7-	=7-	=7-	=7-	=7-	=7-	=7-
0C	-mus	.	1E	.	.	2c/	.	.
.	.	.	.	.	.	2.g\	.	.
*	*	*	*Xlig	*	*	*	*	*
.	.	.	1G	-mvs	.	.	.	.
.	.	.	.	.	.	4f\	.	.
.	.	.	.	.	.	2e/	.	.
*	*	*	*custos:F	*	*	*custos:d	*	*
!	!	!	!LO:LB:g=original	!	!	!LO:LB:g=original	!	!
=8-	=8-	=8-	=8-	=8-	=8-	=8-	=8-	=8-
1F	nun-	.	0F	.	.	2d/	.	.
.	.	.	.	.	.	1c	.	.
1A	-cti-	.	.	.	.	.	.	.
.	.	.	.	.	.	1f\	.	.
=9-	=9-	=9-	=9-	=9-	=9-	=9-	=9-	=9-
1G	-um	.	1B-	nunc-	.	.	.	.
.	.	.	.	.	.	2e/	.	.
1F	vo-	.	1d	-ci-	.	1f	.	.
=10-	=10-	=10-	=10-	=10-	=10-	=10-	=10-	=10-
1A	-cun-	.	1c	-u(m)	.	2f\	vo-	.
.	.	.	.	.	.	4e\	-cun-	.
.	.	.	.	.	.	4f\	.	.
1G	-dvm	.	1B-	vo-	.	1g	.	.
=11-	=11-	=11-	=11-	=11-	=11-	=11-	=11-	=11-
*lig	*	*	*	*	*	*	*	*
1G	fra-	.	1d	-cun-	.	1g	-du(m)	.
1E	.	.	1c	-dum	.	2r	.	.
.	.	.	.	.	.	2g\	fra-	.
*Xlig	*	*	*	*	*	*	*	*
=12-	=12-	=12-	=12-	=12-	=12-	=12-	=12-	=12-
*	*	*	*lig	*	*	*	*	*
0F	-tres	.	1c	fra-	.	2c/	.	.
.	.	.	.	.	.	1f	.	.
.	.	.	1A	.	.	.	.	.
.	.	.	.	.	.	2f\	.	.
*	*	*	*Xlig	*	*	*	*	*
=13-	=13-	=13-	=13-	=13-	=13-	=13-	=13-	=13-
1G	.	.	1B-	.	.	1d	.	.
*	*	*	*	*	*	*custos:e	*	*
!	!	!	!	!	!	!LO:LB:g=original	!	!
1C	Al-	.	1c	-tres	.	1e	-tres	.
*custos:D	*	*	*	*	*	*	*	*
!LO:LB:g=original	!	!	!	!	!	!	!	!
=14-	=14-	=14-	=14-	=14-	=14-	=14-	=14-	=14-
*lig	*	*	*	*	*	*	*	*
1D	-le-	.	1F	Al-	.	2r	.	.
.	.	.	.	.	.	1f	Al-	.
*	*	*	*lig	*	*	*	*	*
1C	.	.	1G	-le-	.	.	.	.
.	.	.	.	.	.	2e\	-le-	.
*Xlig	*	*	*	*	*	*	*	*
=15-	=15-	=15-	=15-	=15-	=15-	=15-	=15-	=15-
*lig	*	*	*	*	*	*	*	*
1D	-lv-	.	1F	.	.	1f	.	.
*	*	*	*Xlig	*	*	*	*	*
*	*	*	*lig	*	*	*	*	*
1E	.	.	1G	-lv-	.	4e/	.	.
.	.	.	.	.	.	4d/	.	.
.	.	.	.	.	.	4c/	.	.
.	.	.	.	.	.	4B-/	.	.
*Xlig	*	*	*	*	*	*	*	*
=16-	=16-	=16-	=16-	=16-	=16-	=16-	=16-	=16-
2.F\	.	.	1A	.	.	2A/	.	.
.	.	.	.	.	.	1f	.	.
4E/	.	.	.	.	.	.	.	.
*	*	*	*Xlig	*	*	*	*	*
*	*	*	*custos:B-	*	*	*	*	*
!	!	!	!LO:LB:g=original	!	!	!	!	!
1D	.	.	1B-	.	.	.	.	.
.	.	.	.	.	.	4e/	.	.
.	.	.	.	.	.	4d/	.	.
=17-	=17-	=17-	=17-	=17-	=17-	=17-	=17-	=17-
1C	.	.	1A	.	.	2e/	.	.
.	.	.	.	.	.	2c/	.	.
2BB-/	.	.	1G	.	.	2d/	.	.
2C/	.	.	.	.	.	1c/	.	.
=18-	=18-	=18-	=18-	=18-	=18-	=18-	=18-	=18-
*	*	*	*lig	*	*	*	*	*
1D	.	.	1F	.	.	.	.	.
*	*	*	*	*	*	*custos:B-	*	*
!	!	!	!	!	!	!LO:LB:g=original	!	!
.	.	.	.	.	.	2B-/	.	.
0C	.	.	1E	.	.	2.c/	-lu-	.
.	.	.	.	.	.	4d/	-ija	.
*	*	*	*Xlig	*	*	*	*	*
=19-	=19-	=19-	=19-	=19-	=19-	=19-	=19-	=19-
*	*	*	*lig	*	*	*	*	*
.	.	.	1G	-ija	.	4e\	.	.
.	.	.	.	.	.	4c/	.	.
.	.	.	.	.	.	4d/	.	.
.	.	.	.	.	.	4e\	.	.
1FF	-ija	.	1F	.	.	1f	.	.
.	.	.	.	.	.	.	.	.
*	*	*	*Xlig	*	*	*	*	*
=20-	=20-	=20-	=20-	=20-	=20-	=20-	=20-	=20-
2r	.	.	1F	Re-	.	2r	.	.
1F\	Re-	.	.	.	.	2f\	Re-	.
*	*	*	*lig	*	*	*	*	*
.	.	.	1G	-gis	.	2d/	-gis	.
2E/	-gis	.	.	.	.	2e\	.	.
*custos:D	*	*	*	*	*	*	*	*
!LO:LB:g=original	!	!	!	!	!	!	!	!
=21-	=21-	=21-	=21-	=21-	=21-	=21-	=21-	=21-
1D	re-	.	1F	.	.	1f	.	.
.	.	.	.	.	.	.	.	.
*	*	*	*Xlig	*	*	*	*	*
*	*	*	*lig	*	*	*	*	*
2.C/	.	.	1G	re-	.	2.e/	re-	.
.	.	.	.	.	.	.	.	.
4BB-/	.	.	.	.	.	4d/	.	.
=22-	=22-	=22-	=22-	=22-	=22-	=22-	=22-	=22-
2AA/	.	.	1A	.	.	2c/	.	.
4GG/	.	.	.	.	.	1f	.	.
4FF/	.	.	.	.	.	.	.	.
*	*	*	*Xlig	*	*	*	*	*
1GG	-gum	.	1B-	.	.	.	.	.
*	*	*	*	*	*	*custos:e	*	*
!	!	!	!	!	!	!LO:PB:g=original	!	!
.	.	.	.	.	.	2e/	.	.
=23-	=23-	=23-	=23-	=23-	=23-	=23-	=23-	=23-
1FF	.	.	1A	.	.	1f	-gum	.
.	.	.	.	.	.	.	.	.
2r	.	.	1G	.	.	2r	.	.
2C/	ga-	.	.	.	.	2e/	.	.
=24-	=24-	=24-	=24-	=24-	=24-	=24-	=24-	=24-
2D/	-bri-	.	1F	.	.	2d/	.	.
2BB-/	-el	.	.	.	.	2d/	.	.
.	.	.	.	.	.	.	.	.
2.C/	.	.	1E	.	.	2c/	.	.
.	.	.	.	.	.	1g\	ga-	.
4BB-/	.	.	.	.	.	.	.	.
*	*	*	*custos:G	*	*	*	*	*
!	!	!	!LO:LB:g=original	!	!	!	!	!
=25-	=25-	=25-	=25-	=25-	=25-	=25-	=25-	=25-
*	*	*	*lig	*	*	*	*	*
2GG/	.	.	1G	-gum	.	.	.	.
2G\	qvod	.	.	.	.	2e/	-bri-	.
2A\	.	.	1F	.	.	1f	-el	.
*custos:F	*	*	*	*	*	*	*	*
!LO:LB:g=original	!	!	!	!	!	!	!	!
2F\	tul-	.	.	.	.	.	.	.
*	*	*	*Xlig	*	*	*	*	*
=26-	=26-	=26-	=26-	=26-	=26-	=26-	=26-	=26-
2.G\	.	.	1B-	ga-	.	2.d/	quod	.
4F\	.	.	.	.	.	4e/	.	.
1D	.	.	1d	-bri-	.	1f	.	.
.	.	.	.	.	.	.	.	.
=27-	=27-	=27-	=27-	=27-	=27-	=27-	=27-	=27-
2E\	.	.	1c	-el	.	2r	.	.
2F\	.	.	.	.	.	2f/	tul-	.
1G	-lit	.	1B-	qvod	.	2d/	.	.
.	.	.	.	.	.	2e/	.	.
=28-	=28-	=28-	=28-	=28-	=28-	=28-	=28-	=28-
1D	.	.	1d	tul-	.	2A/	.	.
*	*	*	*	*	*	*custos:B-	*	*
!	!	!	!	!	!	!LO:LB:g=original	!	!
.	.	.	.	.	.	1B-	.	.
2r	.	.	1c	-lit	.	.	.	.
1F	vir-	.	.	.	.	4A/	.	.
.	.	.	.	.	.	4G/	.	.
=29-	=29-	=29-	=29-	=29-	=29-	=29-	=29-	=29-
*	*	*	*lig	*	*	*	*	*
.	.	.	1c	vir-	.	2A/	.	.
2C/	-gi-	.	.	.	.	2G/	.	.
1D	-ni	.	1A	-gi-	.	2F/	.	.
.	.	.	.	.	.	2.f\	.	.
*	*	*	*Xlig	*	*	*	*	*
=30-	=30-	=30-	=30-	=30-	=30-	=30-	=30-	=30-
1BB-	.	.	1B-	-ni	.	.	.	.
.	.	.	.	.	.	4e\	.	.
.	.	.	.	.	.	2d/	.	.
2r	.	.	1c	res	.	2c/	.	.
2C/	res	.	.	.	.	1g\	.	.
*custos:D	*	*	*	*	*	*	*	*
!LO:PB:g=original	!	!	!	!	!	!	!	!
=31-	=31-	=31-	=31-	=31-	=31-	=31-	=31-	=31-
1D	mi-	.	1F	mi-	.	.	.	.
.	.	.	.	.	.	1f	.	.
*	*	*	*lig	*	*	*	*	*
1C	.	.	1G	.	.	.	.	.
.	.	.	.	.	.	2e/	-lit	.
.	.	.	.	.	.	.	.	.
=32-	=32-	=32-	=32-	=32-	=32-	=32-	=32-	=32-
2.D/	-ran-	.	1F	.	.	2.f\	res	.
*	*	*	*Xlig	*	*	*	*	*
4C/	.	.	.	.	.	4e\	.	.
*	*	*	*lig	*	*	*	*	*
*	*	*	*custos:G	*	*	*	*	*
!	!	!	!LO:LB:g=original	!	!	!	!	!
1BB-	.	.	1G	-ran-	.	1d	mi-	.
.	.	.	.	.	.	.	.	.
=33-	=33-	=33-	=33-	=33-	=33-	=33-	=33-	=33-
2AA/	.	.	1A	.	.	2c/	.	.
2F/	.	.	.	.	.	1A	.	.
*	*	*	*Xlig	*	*	*	*	*
2D/	.	.	1B-	.	.	.	.	.
*	*	*	*	*	*	*custos:G	*	*
!	!	!	!	!	!	!LO:LB:g=original	!	!
2E/	.	.	.	.	.	2G/	.	.
=34-	=34-	=34-	=34-	=34-	=34-	=34-	=34-	=34-
1F	.	.	1A	.	.	4A/	.	.
.	.	.	.	.	.	4F/	.	.
.	.	.	.	.	.	1f	.	.
1C	.	.	1G	.	.	.	.	.
.	.	.	.	.	.	2e/	.	.
=35-	=35-	=35-	=35-	=35-	=35-	=35-	=35-	=35-
1D	.	.	1F	.	.	2f\	.	.
.	.	.	.	.	.	2d/	.	.
2C/	.	.	1E	.	.	2e\	.	.
2AA/	.	.	.	.	.	2c/	.	.
*custos:C	*	*	*	*	*	*	*	*
!LO:LB:g=original	!	!	!	!	!	!	!	!
=36-	=36-	=36-	=36-	=36-	=36-	=36-	=36-	=36-
1BB-	.	.	0G	-da	.	1d	.	.
1C	.	.	.	.	.	1c	.	.
=37-	=37-	=37-	=37-	=37-	=37-	=37-	=37-	=37-
1D	.	.	00Fl;>	.	.	2.A/	-ran-	.
.	.	.	.	.	.	.	.	.
.	.	.	.	.	.	4B-/	.	.
2AA/	.	.	.	.	.	2c/	-da	.
1BB-	-da	.	.	.	.	1d\	.	.
.	.	.	.	.	.	.	.	.
=38-	=38-	=38-	=38-	=38-	=38-	=38-	=38-	=38-
.	.	.	.	.	.	.	.	.
4AA/	.	.	.	.	.	4c/	.	.
4GG/	.	.	.	.	.	4B-/	.	.
1FFl;>	.	.	.	.	.	1c;;l	.	.
*	*	*	*custos:F	*	*	*custos:c	*	*
!	!	!	!LO:PB:g=original	!	!	!LO:LB:g=original	!	!
=39||-	=39||-	=39||-	=39||-	=39||-	=39||-	=39||-	=39||-	=39||-
!!LO:TX:t=P:problem:problem z pionami przez kilka taktów
1F	A-	Sol	1r	.	.	1c	A-	Sol
*lig	*	*	*	*	*	*lig	*	*
1F	-ve	oc-	1F	A-	Sol	1c	-ve	oc-
=40-	=40-	=40-	=40-	=40-	=40-	=40-	=40-	=40-
*	*	*	*lig	*	*	*	*	*
1D	.	-ca-	1F	-ve	oc-	1d	.	-ca-
*Xlig	*	*	*	*	*	*Xlig	*	*
1C	vir-	-svm	1G	.	.	1e	vir-	.
*	*	*	*Xlig	*	*	*	*	*
=41-	=41-	=41-	=41-	=41-	=41-	=41-	=41-	=41-
*lig	*	*	*	*	*	*lig	*	*
1F	-go	.	1A	vir-	-ca-	1c	-go	-sum
*	*	*	*lig	*	*	*	*	*
1D	.	.	1F	-go	-ſum	1d	.	.
*Xlig	*	*	*	*	*	*Xlig	*	*
*custos:C	*	*	*	*	*	*	*	*
!LO:LB:g=original	!	!	!	!	!	!	!	!
=42-	=42-	=42-	=42-	=42-	=42-	=42-	=42-	=42-
*clefF3	*	*	*	*	*	*	*	*
1C	.	qvi	1G	.	.	1e	e-	qvi
*	*	*	*Xlig	*	*	*lig	*	*
2r	.	.	0A	e-	qvi	1f	-le-	ne-
2.c\	e-	ne-	.	.	.	.	.	.
=43-	=43-	=43-	=43-	=43-	=43-	=43-	=43-	=43-
.	.	.	.	.	.	1e	.	.
4B-\	-le-	.	.	.	.	.	.	.
1A	.	.	.	.	.	.	.	.
*	*	*	*lig	*	*	*Xlig	*	*
.	.	.	1B-	-le-	ne-	1d	.	-scit
2G/	.	.	.	.	.	.	.	.
=44-	=44-	=44-	=44-	=44-	=44-	=44-	=44-	=44-
*	*	*	*	*	*	*	*	*
1.c	.	.	1.A	.	.	1e	-cta	lu-
.	.	.	.	.	.	1e	da-	-ce
*	*	*	*Xlig	*	*	*	*	*
4B-\	.	.	4G/	.	.	.	.	.
4A\	.	.	4F/	.	.	.	.	.
=45-	=45-	=45-	=45-	=45-	=45-	=45-	=45-	=45-
1B-	-cta	-scit	1G	.	.	2g\	-bis	sed
.	.	.	.	.	.	2g\	in	cun-
*	*	*	*	*	*	*lig	*	*
2A\	.	.	1A	-cta	-scit	1e	qvit	.
*clefF4	*	*	*	*	*	*	*	*
2AA/	.	.	.	.	.	.	.	.
=46-	=46-	=46-	=46-	=46-	=46-	=46-	=46-	=46-
1BB-	.	.	1r	.	.	1d	.	.
*	*	*	*	*	*	*Xlig	*	*
*custos:AA	*	*	*	*	*	*	*	*
!LO:LB:g=original	!	!	!	!	!	!	!	!
1AA	.	.	1A	da-	lu-	1e	.	.
*	*	*	*custos:c	*	*	*custos:f	*	*
!	!	!	!LO:LB:g=original	!	!	!LO:LB:g=original	!	!
=47-	=47-	=47-	=47-	=47-	=47-	=47-	=47-	=47-
1FF	.	.	1c	-bis	-ce	1f	fi-	-cta
*	*	*	*	*	*	*lig	*	*
2r	.	.	1c	in	sed	1e	-li-	ve-
2C/	da-	lu-	.	.	.	.	.	.
=48-	=48-	=48-	=48-	=48-	=48-	=48-	=48-	=48-
*	*	*	*lig	*	*	*	*	*
2D/	-bis	-ce	1A	qvit	cun-	1d	-um	-stit
2F\	in	sed	.	.	.	.	.	.
*	*	*	*	*	*	*Xlig	*	*
4E/	qvit	cvn-	1G	.	.	0e	.	.
4D/	.	.	.	.	.	.	.	.
4C/	.	.	.	.	.	.	.	.
4BB-/	.	.	.	.	.	.	.	.
*	*	*	*Xlig	*	*	*	*	*
=49-	=49-	=49-	=49-	=49-	=49-	=49-	=49-	=49-
2AA/	.	-cta	1A	.	.	.	.	.
2.A\	fi-	ve-	.	.	.	.	.	.
.	.	.	1B-	fi-	-cta	1r	.	.
4F/	-li-	.	.	.	.	.	.	.
2G\	.	.	.	.	.	.	.	.
=50-	=50-	=50-	=50-	=50-	=50-	=50-	=50-	=50-
*	*	*	*lig	*	*	*	*	*
2A\	.	.	1A	-li-	ve-	0r	.	.
2F/	.	.	.	.	.	.	.	.
*custos:G	*	*	*	*	*	*	*	*
!LO:LB:g=original	!	!	!	!	!	!	!	!
1G	.	.	1G	.	.	.	.	.
*	*	*	*Xlig	*	*	*	*	*
=51-	=51-	=51-	=51-	=51-	=51-	=51-	=51-	=51-
1F	.	.	1A	-um	-ſtit	1c	so-	val-
*	*	*	*	*	*	*lig	*	*
2D/	.	.	1F	so-	val-	1d	-lem	-de
2F/	.	.	.	.	.	.	.	.
=52-	=52-	=52-	=52-	=52-	=52-	=52-	=52-	=52-
*	*	*	*lig	*	*	*	*	*
1E	.	.	1G	-lem	-de	1c	.	.
*	*	*	*	*	*	*Xlig	*	*
1D	.	.	1F	.	.	1d	stel-	cla-
*	*	*	*Xlig	*	*	*	*	*
=53-	=53-	=53-	=53-	=53-	=53-	=53-	=53-	=53-
1C	.	.	1G	stel-	cla-	1e	.	.
1F	-um	-stit	0A	.	.	1f	.	.
=54-	=54-	=54-	=54-	=54-	=54-	=54-	=54-	=54-
2r	.	.	.	.	.	1e	.	.
1A	so-	val-	.	.	.	.	.	.
.	.	.	1B-	.	.	1d	.	.
2G\	-lem	-de	.	.	.	.	.	.
*	*	*	*custos:A	*	*	*	*	*
!	!	!	!LO:LB:g=original	!	!	!	!	!
=55-	=55-	=55-	=55-	=55-	=55-	=55-	=55-	=55-
2A\	stel-	cla-	1A	.	.	1c	.	.
2AA/	.	.	.	.	.	.	.	.
1.BB-	.	.	1G	.	.	2B-/	.	.
.	.	.	.	.	.	1d\	.	.
=56-	=56-	=56-	=56-	=56-	=56-	=56-	=56-	=56-
.	.	.	1F	.	.	.	.	.
1AA	.	.	.	.	.	1c	.	.
.	.	.	2E/	.	.	.	.	.
*custos:GG	*	*	*	*	*	*custos:B-	*	*
!LO:PB:g=original	!	!	!	!	!	!LO:PB:g=original	!	!
2GG/	.	.	1G/	.	.	2B-/	.	.
=57-	=57-	=57-	=57-	=57-	=57-	=57-	=57-	=57-
2AA/	.	.	.	.	.	00c	-la	-ra
2FF/	.	.	1F	.	.	.	.	.
1C	-la	-ra	.	.	.	.	.	.
.	.	.	2E/	.	.	.	.	.
=58-	=58-	=58-	=58-	=58-	=58-	=58-	=58-	=58-
2r	.	.	1F	.	.	.	.	.
*	*ij	*ij	*	*	*	*	*	*
2FF/	stel-	cla-	.	.	.	.	.	.
1C	.	.	1G	.	.	.	.	.
=59-	=59-	=59-	=59-	=59-	=59-	=59-	=59-	=59-
0FF/;>l	-la	-ra	0F;>	-la	-ra	0c;>	.	.
*	*Xij	*Xij	*	*	*	*	*	*
*	*	*	*custos:F	*	*	*	*	*
!	!	!	!LO:LB:g=original	!	!	!	!	!
=60||-	=60||-	=60||-	=60||-	=60||-	=60||-	=60||-	=60||-	=60||-
1F	Si-	Vt	00r	.	.	1F	Si-	Vt
*lig	*	*	*	*	*	*	*	*
1E	-cut	nec	.	.	.	1G	-cut	nec
=61-	=61-	=61-	=61-	=61-	=61-	=61-	=61-	=61-
1F	.	.	.	.	.	4A/	sij-	sij-
.	.	.	.	.	.	4B-/	-dus	-dus
.	.	.	.	.	.	4c/	.	.
.	.	.	.	.	.	4A/	ra-	.
*Xlig	*	*	*	*	*	*	*	*
1D	sij-	sij-	.	.	.	4B-/	.	ra-
.	.	.	.	.	.	4A/	.	.
.	.	.	.	.	.	4G/	.	.
.	.	.	.	.	.	4F/	.	.
*	*	*	*	*	*	*custos:G	*	*
!	!	!	!	!	!	!LO:LB:g=original	!	!
=62-	=62-	=62-	=62-	=62-	=62-	=62-	=62-	=62-
1C	-dvs	-dus	1r	.	.	1G	-di-	-di-
*custos:D	*	*	*	*	*	*	*	*
!LO:LB:g=original	!	!	!	!	!	!	!	!
2D/	ra-	ra-	1F	Si-	Vt	1F,>	-um	-o
2F/	-di-	-di-	.	.	.	.	.	.
=63-	=63-	=63-	=63-	=63-	=63-	=63-	=63-	=63-
*	*	*	*lig	*	*	*	*	*
1G	-um	-o	1E	-cut	nec	2r	.	.
*	*	*	*	*	*	*	*ij	*ij
.	.	.	.	.	.	2c/	si-	Vt
1F	.	.	1F	.	.	2A/	-cut	nec
.	.	.	.	.	.	2F/	sij-	sij-
*	*	*	*Xlig	*	*	*	*	*
=64-	=64-	=64-	=64-	=64-	=64-	=64-	=64-	=64-
2r	.	.	1D	si-	si-	2A/	-dus	-dus
*	*ij	*ij	*	*	*	*	*	*
1F	Si-	Vt	.	.	.	2B-/	ra-	ra-
.	.	.	1C	-dvs	-dus	1G	-di-	-di-
2E/	-cut	nec	.	.	.	.	.	.
=65-	=65-	=65-	=65-	=65-	=65-	=65-	=65-	=65-
1F	.	.	1D	.	.	1F	-um	-o
1D	sij-	sij-	1F	ra-	ra-	2r	.	.
*	*	*	*	*	*	*	*Xij	*Xij
.	.	.	.	.	.	1f\	gi-	ne-
=66-	=66-	=66-	=66-	=66-	=66-	=66-	=66-	=66-
*	*	*	*lig	*	*	*	*	*
1C	-dv	-dus	1G	-di-	-di-	.	.	.
.	.	.	.	.	.	2e/	-gnes	-(que)
2AA/	ra-	ra-	1F	.	.	2.f\	vir-	ma-
2.BB-/	.	.	.	.	.	.	.	.
.	.	.	.	.	.	4e\	-go	-ter
*	*	*	*Xlig	*	*	*	*	*
=67-	=67-	=67-	=67-	=67-	=67-	=67-	=67-	=67-
.	.	.	1F	-um	-o	2d/	.	.
4AA/	.	.	.	.	.	.	.	.
*	*	*	*	*	*	*custos:c	*	*
!	!	!	!	!	!	!LO:LB:g=original	!	!
2FF/	.	.	.	.	.	2c/	fi-	fi-
2BB-/	-di-	-di-	1F	gi-	ne-	2d/	.	.
*custos:AA	*	*	*	*	*	*	*	*
!LO:LB:g=original	!	!	!	!	!	!	!	!
2AA/	-um	-o	.	.	.	2e\	.	.
*	*Xij	*Xij	*	*	*	*	*	*
=68-	=68-	=68-	=68-	=68-	=68-	=68-	=68-	=68-
*	*	*	*lig	*	*	*	*	*
1D	gi-	ne-	1F	-gnes	-(que)	1f	-li-	-li-
1C	-gnes	-(que)	1G	.	.	1e	-um	-o
*	*	*	*Xlig	*	*	*	*	*
*	*	*	*custos:A	*	*	*	*	*
!	!	!	!LO:LB:g=original	!	!	!	!	!
=69-	=69-	=69-	=69-	=69-	=69-	=69-	=69-	=69-
1AA	vir-	ma-	1A	vir-	ma-	2r	.	.
*	*	*	*	*	*	*	*ij	*ij
.	.	.	.	.	.	2A/	gi-	ne-
*	*	*	*lig	*	*	*	*	*
2BB-/	-go	-ter	1F	-go	-ter	2d/	-nes	-(que)
2AA/	fi-	fi-	.	.	.	2c/	vir-	ma-
=70-	=70-	=70-	=70-	=70-	=70-	=70-	=70-	=70-
1GG	-li-	-li-	1G	.	.	1B-	-go	-ter
*	*	*	*Xlig	*	*	*	*	*
1FF	-um	-o	1A	fi-	fi-	2A/	fi-	fi-
.	.	.	.	.	.	1f\	.	.
=71-	=71-	=71-	=71-	=71-	=71-	=71-	=71-	=71-
*	*	*	*lig	*	*	*	*	*
0r	.	.	1B-	-li-	-li-	.	.	.
.	.	.	.	.	.	2e\	.	.
.	.	.	1A	.	.	1f	.	.
*	*	*	*Xlig	*	*	*	*	*
=72-	=72-	=72-	=72-	=72-	=72-	=72-	=72-	=72-
1r	.	.	1G	.	.	2d/	.	.
.	.	.	.	.	.	2e/	.	.
2r	.	.	1A	-vm	-o-	2c/	.	.
*	*	*	*	*	*	*custos:f	*	*
!	!	!	!	!	!	!LO:LB:g=original	!	!
*	*	*ij	*	*	*	*	*	*
2AA/	gi-	fi-	.	.	.	1f\	.	.
=73-	=73-	=73-	=73-	=73-	=73-	=73-	=73-	=73-
2BB-/	-gnus	-li-	1F	pa-	-sis	.	.	.
2AA/	vir-	-o	.	.	.	2f\	-li-	-li-
*	*	*	*lig	*	*	*	*	*
*custos:GG	*	*	*	*	*	*	*	*
!LO:LB:g=original	!	!	!	!	!	!	!	!
4GG/	-go	.	1G	-ri	cor-	1d	-um	-o
4AA/	.	.	.	.	.	.	.	.
4BB-/	.	.	.	.	.	.	.	.
4C/	.	.	.	.	.	.	.	.
*	*	*Xij	*	*	*	*	*Xij	*Xij
=74-	=74-	=74-	=74-	=74-	=74-	=74-	=74-	=74-
4D/	.	.	1F	.	.	2r	.	.
4E/	.	.	.	.	.	.	.	.
1F	fi-	.	.	.	.	2f\	pa-	ſit
*	*	*	*Xlig	*	*	*	*	*
.	.	.	1G	for-	-rv-	2d/	-ri	cor-
2E/	.	.	.	.	.	2e\	for-	-ru-
=75-	=75-	=75-	=75-	=75-	=75-	=75-	=75-	=75-
2F\	.	.	1A	.	.	1c	-ma	-pta
2FF/	.	.	.	.	.	.	.	.
1GG	-li-	.	1B-	.	.	2r	.	.
*	*	*	*	*	*	*	*ij	*ij
.	.	.	.	.	.	1d\	pa-	ſit
=76-	=76-	=76-	=76-	=76-	=76-	=76-	=76-	=76-
1FF	-um	.	1A	.	.	.	.	.
.	.	.	.	.	.	2c/	-ri	cor-
*	*	*	*custos:G	*	*	*	*	*
!	!	!	!LO:PB:g=original	!	!	!	!	!
2r	.	.	1G	.	.	4B-/	for-	.
.	.	.	.	.	.	4c/	.	.
2GG/	pa-	sit	.	.	.	4d/	.	.
.	.	.	.	.	.	4B-/	.	.
*	*	*	*	*	*	*custos:c	*	*
!	!	!	!	!	!	!LO:LB:g=original	!	!
=77-	=77-	=77-	=77-	=77-	=77-	=77-	=77-	=77-
2AA/	-ri	cor-	1F	.	.	2.c/	.	.
2FF/	for-	.	.	.	.	.	.	.
.	.	.	.	.	.	4B-/	.	.
*custos:GG	*	*	*	*	*	*	*	*
!LO:LB:g=original	!	!	!	!	!	!	!	!
2GG/	.	.	2E/	.	.	2G/	.	.
2AA/	.	.	2F/	.	.	2c/	.	.
=78-	=78-	=78-	=78-	=78-	=78-	=78-	=78-	=78-
2BB-/	.	.	1G	.	.	2B-/	.	.
2C/	.	-ru-	.	.	.	2G/	.	-ru-
1FF/;>l	-ma	-pta	1F;>l	-ma	-pta	1c;>l	-ma	-pta
*	*	*	*	*	*	*	*Xij	*Xij
=79||-	=79||-	=79||-	=79||-	=79||-	=79||-	=79||-	=79||-	=79||-
1F	Vir-	Gra-	1c	Vir-	Gra-	4F/	Vir-	Gra-
.	.	.	.	.	.	4G/	-tus	-ci-
.	.	.	.	.	.	4A/	.	-a
.	.	.	.	.	.	4B-/	.	.
2F\	.	-ci-	1c	-tus	-ci-	4c/	.	.
.	.	.	.	.	.	4d/	.	.
*	*	*	*	*	*	*custos:e	*	*
!	!	!	!	!	!	!LO:PB:g=original	!	!
2E/,<	-tus	-a	.	.	.	2e/	.	.
=80-	=80-	=80-	=80-	=80-	=80-	=80-	=80-	=80-
1D	sum-	qvod	1d	ſvm-	-a	1f	sum-	qvod
1G	-mi	di-	1B-	-mi	qvod	1d	-mi	.
*	*	*	*custos:c	*	*	*	*	*
!	!	!	!LO:LB:g=original	!	!	!	!	!
=81-	=81-	=81-	=81-	=81-	=81-	=81-	=81-	=81-
1C	nu-	-gna-	1c	nv-	di-	1e	.	di-
*	*	*	*lig	*	*	*	*	*
*custos:D	*	*	*	*	*	*	*	*
!LO:PB:g=original	!	!	!	!	!	!	!	!
2D/	.	.	1B-	-mi-	-gna-	2f\	.	-gna-
2E/	.	.	.	.	.	2g\	.	.
=82-	=82-	=82-	=82-	=82-	=82-	=82-	=82-	=82-
1F	-mi-	-gna-	1A	.	.	2c/	.	.
.	.	.	.	.	.	1f	nu-	.
*	*	*	*Xlig	*	*	*	*	*
1C	-nis	-sis	1G	.	.	.	.	.
.	.	.	.	.	.	2e/	-mi-	-sis
=83-	=83-	=83-	=83-	=83-	=83-	=83-	=83-	=83-
1FF	.	.	1A	-nis	-sis	1f	-nis	.
2r	.	.	1c	fa-	pa-	2r	.	.
2C/	fa-	pa-	.	.	.	2e/	fa-	pa-
=84-	=84-	=84-	=84-	=84-	=84-	=84-	=84-	=84-
*	*	*	*lig	*	*	*	*	*
2D/	.	.	1A	-ci-	-tris	2d/	-ci-	-tris
1F	.	.	.	.	.	2c/	-et	.
.	.	.	1G	.	.	1g	hec	.
2E/	-ci-	-tris	.	.	.	.	.	.
*	*	*	*Xlig	*	*	*	*	*
*	*	*	*	*	*	*custos:f	*	*
!	!	!	!	!	!	!LO:LB:g=original	!	!
=85-	=85-	=85-	=85-	=85-	=85-	=85-	=85-	=85-
1F	-et	.	1A	-et	.	2f\	om-	ve-
.	.	.	.	.	.	2f\	-ni-	-rit
1G	.	ve-	1B-	hec	ve-	1d	-a	.
=86-	=86-	=86-	=86-	=86-	=86-	=86-	=86-	=86-
*	*	*	*lig	*	*	*	*	*
1D	hec	-rit	1A	om-	-rit	2r	.	.
.	.	.	.	.	.	2f\	val-	fi-
2r	.	.	1G	.	.	2f\	-le	-li-
2C/	om-	fi-	.	.	.	2e\	no-	-us
*	*	*	*Xlig	*	*	*	*	*
=87-	=87-	=87-	=87-	=87-	=87-	=87-	=87-	=87-
*	*	*	*lig	*	*	*	*	*
2D/	.	.	1F	.	fi-	2.f\	.	car-
*custos:F	*	*	*	*	*	*	*	*
!LO:LB:g=original	!	!	!	!	!	!	!	!
1F	.	.	.	.	.	.	.	.
.	.	.	.	.	.	4e/	.	-ne
.	.	.	1G	.	.	2d/	.	.
2E/	.	.	.	.	.	4e/	.	.
.	.	.	.	.	.	4d/	.	.
*	*	*	*Xlig	*	*	*	*	*
=88-	=88-	=88-	=88-	=88-	=88-	=88-	=88-	=88-
*	*	*	*lig	*	*	*	*	*
1F	.	.	1A	.	.	4c/	.	.
.	.	.	.	.	.	4B-/	.	.
.	.	.	.	.	.	1A	.	.
1G	-ni-	-li-	1B-	.	.	.	.	.
.	.	.	.	.	.	2G/	.	.
*	*	*	*Xlig	*	*	*	*	*
*	*	*	*	*	*	*custos:A	*	*
!	!	!	!	!	!	!LO:LB:g=original	!	!
=89-	=89-	=89-	=89-	=89-	=89-	=89-	=89-	=89-
1D	-a	-us	1A	-ni-	-li-	2A/	.	.
.	.	.	.	.	.	1F	.	.
*	*	*	*custos:A	*	*	*	*	*
!	!	!	!LO:LB:g=original	!	!	!	!	!
2r	.	.	1A	-a	-vs	.	.	.
2F/	val-	car-	.	.	.	1f\	.	svm-
=90-	=90-	=90-	=90-	=90-	=90-	=90-	=90-	=90-
2D/	-le	-ne	1B-	val-	car-	.	.	.
2E/	.	.	.	.	.	4e/	.	-pta
.	.	.	.	.	.	4d/	.	.
*	*	*	*lig	*	*	*	*	*
2.F\	no-	svm-	1A	-le	-ne	1c	.	.
4E/	.	.	.	.	.	.	.	.
=91-	=91-	=91-	=91-	=91-	=91-	=91-	=91-	=91-
2C/	.	.	1G	.	.	2r	.	.
*	*	*	*	*	*	*	*	*ij
2E/	.	.	.	.	.	2c/	.	fi-
*	*	*	*Xlig	*	*	*	*	*
1D	.	.	1F	.	.	4d/	.	-li-
.	.	.	.	.	.	4e\	.	-us
.	.	.	.	.	.	4f\	.	car-
.	.	.	.	.	.	4d/	.	-ne
=92-	=92-	=92-	=92-	=92-	=92-	=92-	=92-	=92-
1C	.	.	2.E/	no-	sum-	1e	.	svm-
.	.	.	4F/	.	.	.	.	.
2r	.	.	4G/	.	.	1d	-stra	-pta
.	.	.	4A/	.	.	.	.	.
2BB-/	.	.	1B-\	.	.	.	.	.
*	*	*	*	*	*	*	*	*Xij
*custos:GG	*	*	*	*	*	*	*	*
!LO:LB:g=original	!	!	!	!	!	!	!	!
=93-	=93-	=93-	=93-	=93-	=93-	=93-	=93-	=93-
2GG/	.	.	.	.	.	2r	.	.
*	*	*	*	*	*	*	*ij	*ij
*	*	*	*	*	*	*custos:c	*	*
!	!	!	!	!	!	!LO:LB:g=original	!	!
2AA/	.	.	4A/	.	.	2c/	val-	car-
.	.	.	4G/	.	.	.	.	.
2.BB-/	.	.	2F/	.	.	4d/	-le	-ne
.	.	.	.	.	.	4e\	no-	.
.	.	.	2.G/	.	.	4f\	.	.
4AA/	.	.	.	.	.	4d/	.	.
=94-	=94-	=94-	=94-	=94-	=94-	=94-	=94-	=94-
2FF/	.	.	.	.	.	1f	.	fi-
.	.	.	4C/	.	.	.	.	.
*	*	*	*custos:F	*	*	*	*	*
!	!	!	!LO:LB:g=original	!	!	!	!	!
2AA/	.	.	2.F/	.	.	.	.	.
1GG	.	.	.	.	.	1g	.	-li-
.	.	.	8E/L	.	.	.	.	.
.	.	.	8D/J	.	.	.	.	.
.	.	.	2E/	.	.	.	.	.
=95-	=95-	=95-	=95-	=95-	=95-	=95-	=95-	=95-
1FF	.	.	1F	.	.	2c/	.	-us
.	.	.	.	.	.	2.f\	.	svm-
1C	.	.	1G	.	.	.	.	.
.	.	.	.	.	.	4d/	.	.
.	.	.	.	.	.	2e/	.	.
=96-	=96-	=96-	=96-	=96-	=96-	=96-	=96-	=96-
2F/	.	.	00A;;l	-stra	-pta	2c/	.	.
2.D/	.	.	.	.	.	1d	.	.
4E/	.	.	.	.	.	.	.	.
2F/	.	.	.	.	.	4c/	.	.
.	.	.	.	.	.	4B-/	.	.
=97-	=97-	=97-	=97-	=97-	=97-	=97-	=97-	=97-
0FF/;>l	-stra	-pta	.	.	.	0c;>	-stra	-pta
*	*	*	*	*	*	*	*Xij	*Xij
*custos:C	*	*	*	*	*	*custos:c	*	*
!LO:LB:g=original	!	!	!	!	!	!LO:LB:g=original	!	!
=98||-	=98||-	=98||-	=98||-	=98||-	=98||-	=98||-	=98||-	=98||-
00r	.	.	1F	I-	Si	1c	I-	Si
.	.	.	2F/	-saij-	non	1c	-saij-	non
.	.	.	2E/	.	su-	.	.	.
=99-	=99-	=99-	=99-	=99-	=99-	=99-	=99-	=99-
.	.	.	2D/	-as	-is	1d	.	su-
*	*	*	*custos:G	*	*	*	*	*
!	!	!	!LO:LB:g=original	!	!	!	!	!
.	.	.	1G	ce-	va-	.	.	.
.	.	.	.	.	.	2.f\	-as	-is
.	.	.	2F/	-ci-	.	.	.	.
.	.	.	.	.	.	4e\	.	.
=100-	=100-	=100-	=100-	=100-	=100-	=100-	=100-	=100-
0r	.	.	2G/	.	.	2d/	.	.
.	.	.	2A/	.	.	1c	.	.
.	.	.	2.G/	.	.	.	.	.
.	.	.	.	.	.	2B-/	.	.
.	.	.	4B-/	.	.	.	.	.
=101-	=101-	=101-	=101-	=101-	=101-	=101-	=101-	=101-
1C	I-	Si-	2A/	.	.	2c/	.	.
.	.	.	4G/	.	.	1f	ce-	va-
.	.	.	4F/	.	.	.	.	.
1C	-saij-	-non	1G	.	-ti-	.	.	.
.	.	.	.	.	.	2e\	-ci-	-ti-
=102-	=102-	=102-	=102-	=102-	=102-	=102-	=102-	=102-
1D	-as	su-	1F	-nit	-bus	0f	-nit	-bus
1F	.	-is	2r	.	.	.	.	.
.	.	.	2c\	vir-	cre-	.	.	.
=103-	=103-	=103-	=103-	=103-	=103-	=103-	=103-	=103-
1D	ce-	va-	2B-/	-go	-dat	2r	.	.
*	*	*	*	*	*	*	*ij	*ij
.	.	.	2A/	pro-	.	1d	I-	Si
1BB-	-ci-	-ti-	2G/	.	.	.	.	.
*	*	*	*custos:F	*	*	*	*	*
!	!	!	!LO:PB:g=original	!	!	!	!	!
.	.	.	1F/	.	.	2d/	-saij-	non
*	*	*	*	*	*	*custos:c	*	*
!	!	!	!	!	!	!LO:PB:g=original	!	!
=104-	=104-	=104-	=104-	=104-	=104-	=104-	=104-	=104-
1C	-nit	-bus	.	.	.	1c	-as	su-
.	.	.	2E/	.	.	.	.	.
1F	vir-	cre-	1F	-lem	vel	1c	ce-	-is
=105-	=105-	=105-	=105-	=105-	=105-	=105-	=105-	=105-
1D	-go	-dat	2r	.	.	1d	.	.
.	.	.	2.F/	par-	gen-	.	.	.
1F	pro-	vel	.	.	.	2.c/	.	.
.	.	.	4G/	-tv-	-ti-	.	.	.
.	.	.	4A/	.	-li-	.	.	.
.	.	.	4B-/	.	.	4d/	.	.
=106-	=106-	=106-	=106-	=106-	=106-	=106-	=106-	=106-
1C	-lem	gen-	1c	-rit	-bus	2e/	.	.
.	.	.	.	.	.	1f	.	va-
1C	par-	-ti-	2c/	con-	si-	.	.	.
.	.	.	4B-/	.	.	2e/	-ci-	-ti-
.	.	.	4A/	.	.	.	.	.
=107-	=107-	=107-	=107-	=107-	=107-	=107-	=107-	=107-
1BB-	-tu-	-li-	4B-/	.	.	2f/	-nit	-bus
.	.	.	4A/	.	.	.	.	.
*	*	*	*	*	*	*	*Xij	*Xij
.	.	.	2.d\	.	.	2d/	Vir-	cre-
*custos:AA	*	*	*	*	*	*	*	*
!LO:LB:g=original	!	!	!	!	!	!	!	!
1AA	.	.	.	.	.	2e/	-go	-dat
.	.	.	4c/	.	.	.	.	.
*	*	*	*custos:c	*	*	*	*	*
!	!	!	!LO:LB:g=original	!	!	!	!	!
.	.	.	1c\	.	.	2f/	pro-	vel-
=108-	=108-	=108-	=108-	=108-	=108-	=108-	=108-	=108-
1GG	.	.	.	.	.	1d	-lem	-gen-
.	.	.	2B-/	-tem-	-bi-	.	.	.
*	*	*	*	*	*	*custos:c	*	*
!	!	!	!	!	!	!LO:LB:g=original	!	!
0AA	-rit	-bus	1.c	-vit	-li-	2.c/	pa(r)-	-ti-
.	.	.	.	.	.	4d/	-tu-	.
=109-	=109-	=109-	=109-	=109-	=109-	=109-	=109-	=109-
.	.	.	.	.	.	2e\	.	.
.	.	.	4B-/	.	-nis	2f\	.	.
.	.	.	4A/	.	.	.	.	.
0r	.	.	2G/	.	.	2c/	.	.
.	.	.	2F/	.	.	2.f\	.	.
=110-	=110-	=110-	=110-	=110-	=110-	=110-	=110-	=110-
.	.	.	1G	hec	.	.	.	.
.	.	.	.	.	.	4e/	.	.
.	.	.	.	.	.	2.e\	.	.
1C	con-	si-	2r	.	.	.	.	.
.	.	.	.	.	.	4d/	.	.
.	.	.	2G/	gens	ver-	1c\	.	.
=111-	=111-	=111-	=111-	=111-	=111-	=111-	=111-	=111-
*lig	*	*	*	*	*	*	*	*
1AA	-tem-	-bi-	1c	e-	.	.	.	.
.	.	.	.	.	.	4B-/	.	.
.	.	.	.	.	.	4A/	.	.
1GG	.	-li-	1d	.	.	1B-	-tu-	-li-
*Xlig	*	*	*	*	*	*	*	*
*	*	*	*	*	*	*custos:c	*	*
!	!	!	!	!	!	!LO:LB:g=original	!	!
=112-	=112-	=112-	=112-	=112-	=112-	=112-	=112-	=112-
1AA	.	-nis	2c/	.	.	1c	-rit	-bus
.	.	.	1A	.	.	.	.	.
1BB-	-vit	ver-	.	.	.	1r	.	.
.	.	.	2G/	.	.	.	.	.
*	*	*	*custos:A	*	*	*	*	*
!	!	!	!LO:LB:g=original	!	!	!	!	!
=113-	=113-	=113-	=113-	=113-	=113-	=113-	=113-	=113-
*lig	*	*	*	*	*	*	*	*
1AA	ge(n)s	.	1A	.	.	2r	.	.
.	.	.	.	.	.	2F/	con-	si-
1GG	.	.	1B-	-bre-	-si-	1G	-tem-	-bi-
*Xlig	*	*	*	*	*	*	*	*
=114-	=114-	=114-	=114-	=114-	=114-	=114-	=114-	=114-
*lig	*	*	*	*	*	*	*	*
1FF	he-	.	1A	-a	-bus	2A/	-vit	-li-
.	.	.	.	.	.	2.c/	hec	-nis
1GG	.	.	00r	.	.	.	.	.
.	.	.	.	.	.	4B-/	.	ver-
.	.	.	.	.	.	2.B-/	gens	.
*Xlig	*	*	*	*	*	*	*	*
=115-	=115-	=115-	=115-	=115-	=115-	=115-	=115-	=115-
*lig	*	*	*	*	*	*	*	*
1AA	.	.	.	.	.	.	.	.
.	.	.	.	.	.	4A/	.	.
.	.	.	.	.	.	1A	mi-	si-
1BB-	.	.	.	.	.	.	.	.
.	.	.	.	.	.	2G/	-se-	-bus
*Xlig	*	*	*	*	*	*	*	*
=116-	=116-	=116-	=116-	=116-	=116-	=116-	=116-	=116-
1AA	-bre-	-si-	.	.	.	2.A/	-ra	.
.	.	.	.	.	.	4B-/	.	.
1AA	-a	-bus	2r	.	.	4c/	.	.
.	.	.	.	.	.	4d/	.	.
*	*	*	*	*	*	*custos:e	*	*
!	!	!	!	!	!	!LO:LB:g=original	!	!
.	.	.	1c\	vs-	hec	1e\	.	Hec
=117-	=117-	=117-	=117-	=117-	=117-	=117-	=117-	=117-
1BB-	vs-	hec	.	.	.	.	.	.
.	.	.	2B-/	-(que)	pre-	2d/	.	.
*custos:AA	*	*	*	*	*	*	*	*
!LO:PB:g=original	!	!	!	!	!	!	!	!
*lig	*	*	*	*	*	*	*	*
1AA	-(que)	pre-	2c/	ce-	-di-	2e\	.	.
.	.	.	2A/	.	.	2f\	.	.
=118-	=118-	=118-	=118-	=118-	=118-	=118-	=118-	=118-
1GG	.	.	1B-	.	.	1g	us-	.
*Xlig	*	*	*	*	*	*	*	*
2.FF/	ce-	.	2.A/	.	.	2c/	-(que)	.
.	.	.	.	.	.	2.f\	.	.
4GG/	.	.	4B-/	.	.	.	.	.
=119-	=119-	=119-	=119-	=119-	=119-	=119-	=119-	=119-
4AA/	.	.	1c	.	.	.	.	.
4BB-/	.	.	.	.	.	4d/	.	.
2C/	.	.	.	.	.	2e\	.	.
1D	.	.	1F	.	.	2A/	ce-	pre-
.	.	.	.	.	.	2B-/	.	.
=120-	=120-	=120-	=120-	=120-	=120-	=120-	=120-	=120-
1C	.	-di-	1G	-ca	-cta	1c	.	-di-
1FF/;>l	-ca	-cta	1F;;l	.	.	1c;>l	-ca	-cta
*	*	*	*custos:C	*	*	*custos:G	*	*
!	!	!	!LO:LB:g=original	!	!	!LO:LB:g=original	!	!
=121||-	=121||-	=121||-	=121||-	=121||-	=121||-	=121||-	=121||-	=121||-
00r	.	.	00r	.	.	1G	In-	Na-
.	.	.	.	.	.	1c	-fe-	-tum
=122-	=122-	=122-	=122-	=122-	=122-	=122-	=122-	=122-
.	.	.	.	.	.	1d	-lix	con-
.	.	.	.	.	.	2B-/	pro-	-si-
.	.	.	.	.	.	2d/	-pe-	-de-
=123-	=123-	=123-	=123-	=123-	=123-	=123-	=123-	=123-
1C	In-	Na-	0r	.	.	1c	-ra	-ra
1F	-fe-	-tum	.	.	.	1r	.	.
*custos:G	*	*	*	*	*	*	*	*
!LO:LB:g=original	!	!	!	!	!	!	!	!
=124-	=124-	=124-	=124-	=124-	=124-	=124-	=124-	=124-
1G	-lix	con-	0C	In-	Na-	1G	cre-	quem
2E\	pro-	-si-	.	.	.	1c	-de	.
2G\	-pe-	-de-	.	.	.	.	.	.
=125-	=125-	=125-	=125-	=125-	=125-	=125-	=125-	=125-
1F	-ra	-ra	1F	-fe-	-tum	1d	vel	do-
1r	.	.	1G	-lix	con-	2B-/	ve-	-cet
.	.	.	.	.	.	2d/	-te-	lit-
=126-	=126-	=126-	=126-	=126-	=126-	=126-	=126-	=126-
0C	cre-	quem	1E	pro-	-si-	2.c/	-ra	-te-
.	.	.	.	.	.	4d/	.	-ra
*	*	*	*	*	*	*custos:e	*	*
!	!	!	!	!	!	!LO:PB:g=original	!	!
.	.	.	1G	-pe-	-de-	1e	.	.
=127-	=127-	=127-	=127-	=127-	=127-	=127-	=127-	=127-
1F	-de	do-	1F	-ra	-ra	1f	.	.
1G	vel	-cet	1r	.	.	2d/	.	.
.	.	.	.	.	.	2.g\	.	.
=128-	=128-	=128-	=128-	=128-	=128-	=128-	=128-	=128-
2E/	ve-	lit-	1C	cre-	qvem	.	.	.
.	.	.	.	.	.	4f/	.	.
2G\	-te-	-te-	.	.	.	4e/	.	.
.	.	.	.	.	.	4d/	.	.
1F	-ra	-ra	1F	-de	do-	2c/	.	.
.	.	.	.	.	.	1f\	.	.
=129-	=129-	=129-	=129-	=129-	=129-	=129-	=129-	=129-
2r	.	.	1G	vel	-c(et)	.	.	.
*	*ij	*ij	*	*	*	*	*	*
2.C/	cre-	quem	.	.	.	4e/	.	.
.	.	.	.	.	.	4d/	.	.
.	.	.	1E	ve-	lit-	2e/	.	.
4BB-/	-de	do-	.	.	.	.	.	.
2AA/	vel	-cet	.	.	.	2c/	.	.
*custos:GG	*	*	*	*	*	*	*	*
!LO:LB:g=original	!	!	!	!	!	!	!	!
=130-	=130-	=130-	=130-	=130-	=130-	=130-	=130-	=130-
4GG/	ve-	lit-	1G	-te-	-te-	2.d/	.	.
4AA/	.	.	.	.	.	.	.	.
4BB-/	.	.	.	.	.	.	.	.
4C/	.	.	.	.	.	4c/	.	.
*	*	*	*custos:F	*	*	*custos:A	*	*
!	!	!	!LO:LB:g=original	!	!	!LO:LB:g=original	!	!
1D	-te-	-te-	1F	-ra	-ra	2.A/	.	.
.	.	.	.	.	.	4B-/	.	.
=131-	=131-	=131-	=131-	=131-	=131-	=131-	=131-	=131-
1C	-ra	-ra	0r	.	.	1c	.	.
*	*Xij	*Xij	*	*	*	*	*	*
1E	cur	I-	.	.	.	00r	.	.
=132-	=132-	=132-	=132-	=132-	=132-	=132-	=132-	=132-
1G	dam-	-psum	1r	.	.	.	.	.
*lig	*	*	*	*	*	*	*	*
1F	-na	con-	1A	cur	I-	.	.	.
=133-	=133-	=133-	=133-	=133-	=133-	=133-	=133-	=133-
1E	.	.	1c	dam-	-psum	.	.	.
*Xlig	*	*	*	*	*	*	*	*
1D	be-	-ce-	1B-	-na	con-	1r	.	.
=134-	=134-	=134-	=134-	=134-	=134-	=134-	=134-	=134-
2.C/	-ris	-pit	2A/	.	-ce-	1e	cur	I-
.	.	.	1G	.	-pit	.	.	.
4D/	.	puer-	.	.	.	.	.	.
2E/	.	.	.	.	.	1g	dam-	-psum
2C/	.	.	4F/	.	puer-	.	.	.
.	.	.	4E/	.	.	.	.	.
=135-	=135-	=135-	=135-	=135-	=135-	=135-	=135-	=135-
*	*	*	*	*	*	*lig	*	*
1D	.	.	1F	.	.	1f	-na	con-
1C	.	.	1G	be-	-pe-	1e	.	-ce-
*	*	*	*	*	*	*Xlig	*	*
*custos:F	*	*	*	*	*	*	*	*
!LO:LB:g=original	!	!	!	!	!	!	!	!
=136-	=136-	=136-	=136-	=136-	=136-	=136-	=136-	=136-
2.F\	gens	-pe-	0F	-ris	-ra	2d/	.	.
.	.	.	.	.	.	1c	.	.
4E/	.	-ra	.	.	.	.	.	.
1D	.	.	.	.	.	.	.	.
.	.	.	.	.	.	2B-/	be-	-pit
=137-	=137-	=137-	=137-	=137-	=137-	=137-	=137-	=137-
1C	.	.	2r	.	.	1c	-ris	.
.	.	.	1G	gens	Ma-	.	.	.
1r	.	.	.	.	.	2r	.	.
.	.	.	2F/	mi-	.	1d\	gens	puer-
*	*	*	*custos:G	*	*	*	*	*
!	!	!	!LO:LB:g=original	!	!	!	!	!
=138-	=138-	=138-	=138-	=138-	=138-	=138-	=138-	=138-
2r	.	.	2G/	.	.	.	.	.
2F\	mi-	Ma-	2A/	.	.	2c/	mi-	-pe-
2D/	-se-	-ri-	1B-	.	.	2d/	-se-	.
*	*	*	*	*	*	*custos:e	*	*
!	!	!	!	!	!	!LO:LB:g=original	!	!
2G\	.	.	.	.	.	2e\	.	-ra
=139-	=139-	=139-	=139-	=139-	=139-	=139-	=139-	=139-
2.F\	.	.	1A	.	.	1.f	.	Ma-
4E/	.	.	.	.	.	.	.	.
2C/	.	.	2G/	.	.	.	.	.
2D/	.	.	1F/	.	.	1d\	.	.
=140-	=140-	=140-	=140-	=140-	=140-	=140-	=140-	=140-
2BB-/	.	.	.	.	.	.	.	.
2C/	.	.	2E/	.	.	1c	.	.
1D	.	.	1F	.	.	.	.	.
!	!	!	!	!	!	!LO:SIC:v:s:t=2Bn/	!	!
.	.	.	.	.	.	2B-/	.	.
*custos:C	*	*	*	*	*	*	*	*
!LO:LB:g=original	!	!	!	!	!	!	!	!
=141-	=141-	=141-	=141-	=141-	=141-	=141-	=141-	=141-
1C	.	.	1G	-ſe-	-ri-	1c	.	.
2.D/	.	.	[1Fl;;	-ra	-a	1A	-se-	-ri-
4E/	.	.	.	.	.	.	.	.
=142-	=142-	=142-	=142-	=142-	=142-	=142-	=142-	=142-
2F\	.	.	0F_	.	.	2A/	-ra	-a
2.BB-/	.	.	.	.	.	1d	gens	Ma-
4C/	.	.	.	.	.	.	.	.
4D/	.	.	.	.	.	2d/	mi-	.
4E/	.	.	.	.	.	.	.	.
=143-	=143-	=143-	=143-	=143-	=143-	=143-	=143-	=143-
2F\	.	.	0F]	.	.	2c/	-se-	-ri-
2BB-/	.	.	.	.	.	2d/	-ra	-a
!LO:TX:t=P:problem=fermata nad każdą nutą	!	!	!	!	!	!	!	!
1FF;>l 1F;>	-ra	-a	.	.	.	1cl\;;	.	.
=-	=-	=-	=-	=-	=-	=-	=-	=-
*-	*-	*-	*-	*-	*-	*-	*-	*-
!!!system-decoration: [(g1)]
!!!RDF**kern: > = above
!!!RDF**kern: < = below
!!!RDF**kern: l = terminal long
!!!ENC: Berenika Jozajtis
!!!END: 2020-01-15
!!!EED: Jędrzej Mróz
!!!EEV: 2022-01-25
